X:1
T:Title
%%score { 1 | ( 2 3 ) }
L:1/8
Q:1/4=92
M:4/4
K:Eb
V:1 treble nm="Grand Piano"
V:2 bass 
V:3 bass 
V:1
 [G,E]EEE [A,F]2 FF | [B,G]2 G2 B4 | [G,E]2 [G,E]2 [A,F]2 FF | [B,G]2 [EG]2 [DB]4 | %4
w: Robert~Harkness * * * * * *||||
 [DB]B[DB]B =A2 AA | G2 G2 [DF]4 | B2 B2 d c2 B | %7
w: |||
[M:17/16] c-<cF-<F[DB]/-[DB]/-[DB]/-[DB]/-[DB]/-[DB]-<[DB] |[M:3/4] [FB] [EB]3 [EG][=EA] | %9
w: ||
 [=EG]G- G/F/ F2 F- | F [DF]3 [Dc][EB] | [FA][EG]- [EG]/[FA]/ [GB]2 [FB]- | [FB] [Be]3 [Bd][Bf] | %13
w: ||||
 [EBe][EBd]- [EBd]/[EAc]/ [EGB]2 [B,EG]- | [B,EG] [EB]3 [G,E][CEA] | %15
w: ||
 [B,EG][B,DG]- [B,DG]/[A,DF]/ [G,E]3- | [G,E] z z2 z2 |] %17
w: ||
V:2
 z G,G,G, z2 A,A, | z2 B,2 [B,,D,A,]4 | [E,,B,,]4 z2 A,A, | [E,,B,,]4 [B,,A,]4 | %4
 z D z D [D,_G,C]2 CC | [E,B,]2 [E,B,E]2 [B,,B,]4 | [G,D]2 [_G,=E]2 [F,B,F] [F,=A,_E]2 [F,D] | %7
[M:17/16] [F,=A,E]-<[F,A,E][F,A,E]-<[F,A,E]B,,/-B,,/-B,,/-B,,/-B,,/-B,,-<B,, | %8
[M:3/4] [B,,A,] [E,G,]3 [E,B,][C,C] | [C,B,][F,=A,E]- [F,A,E]/[F,A,E]/ [F,A,E]2 [F,A,E]- | %10
 [F,A,E] [B,,B,]3 [B,,_A,][B,,G,] | [D,B,][E,B,]- [E,B,]/[E,B,]/ [E,E]2[K:treble] [A,D]- | %12
 [A,D] [G,E]3 [B,F][A,D] | G,A,- A,/C,/ E,2 E,- | E, [B,,G,]3 B,,B,, | B,,B,,- B,,/B,,/ E,3- | %16
 E, z z2 z2 |] %17
V:3
 [E,,B,,]4 [E,,B,,]4 | E,,4 z4 | z4 [E,,B,,]4 | x8 | G,2 G,2 z2 [D,_G,]2 | x8 | x8 | %7
[M:17/16] x17/2 |[M:3/4] x6 | x6 | x6 | x5[K:treble] x | x6 | x6 | x6 | x6 | x6 |] %17

